public/avatar/body/582.svg

<svg height="82" width="84.85" xmlns:xlink="http://www.w3.org/1999/xlink" xmlns="http://www.w3.org/2000/svg"><g transform="translate(37.4 42.25)"><use height="15.95" transform="translate(-16.8 -2.95)" width="42.15" xlink:href="#a"/><use height="11.2" transform="translate(-16.3 .25)" width="41.5" xlink:href="#b"/><use height="16.95" transform="translate(-17.3 -3.45)" width="43.15" xlink:href="#c"/><use height="4.9" transform="translate(-17.3 -.25)" width="42.6" xlink:href="#d"/><use height="38" transform="translate(-11.95 -17.45)" width="32.05" xlink:href="#e"/><use height="21.6" transform="translate(-12.25 -17.95)" width="32.65" xlink:href="#f"/><use height="21.85" transform="translate(-13.75 .55)" width="34.75" xlink:href="#g"/><use height="7.75" transform="translate(-12.95 14.65)" width="32.95" xlink:href="#h" style="display:inline"/><use height="21.35" transform="translate(-12.3 .55)" width="32.85" xlink:href="#i" style="display:inline"/><use height="22.45" transform="translate(-13.8 .45)" width="35.4" xlink:href="#j" style="display:inline"/><path d="M5.75 2.85V2.6q0-.35-.2-1.15Q5.35.9 4.6.4 3.9 0 2.85 0q-.75 0-1.4.25Q.8.6.5 1q-.35.45-.45 1L0 3.5q.05 1.1.25 1.85.25.7.9 1.05.7.4 1.75.4 1 0 1.75-.45.7-.55.9-1.1.2-.55.2-1.25v-.05H3.3L3.25 5q-.15.2-.35.2-.35 0-.4-.2V1.8q.05-.2.4-.2.3 0 .35.15l.05.45v.65h2.45" style="fill:#530200;fill-opacity:1" transform="translate(9.35 12.45)"/><use height="2.25" transform="translate(2.25 10.3)" width="3.95" xlink:href="#k"/><use height="2.6" transform="translate(3.05 11.15)" width="2.25" xlink:href="#l"/></g><defs><use height="15.95" width="42.15" xlink:href="#m" id="a"/><use height="11.2" width="41.5" xlink:href="#n" id="b"/><use height="16.95" width="43.15" xlink:href="#o" id="c"/><use height="4.9" width="42.6" xlink:href="#p" id="d"/><use height="38" width="32.05" xlink:href="#q" id="e"/><use height="21.6" width="32.65" xlink:href="#r" id="f"/><use height="21.85" width="34.75" xlink:href="#s" id="g"/><use height="7.75" width="32.95" xlink:href="#t" id="h"/><use height="21.35" width="32.85" xlink:href="#u" id="i"/><use height="22.45" width="35.4" xlink:href="#v" id="j"/><use height="2.25" width="3.95" xlink:href="#w" id="k"/><use height="2.6" width="2.25" xlink:href="#x" id="l"/><path d="M20.95 0q20.95 0 21.2 3.8.2 2.8-5.05 6.9-6.65 5.25-16.25 5.25-9.55 0-15.9-4.75Q.15 7.55 0 4.8q-.1-1.7 5.9-3.2Q12.35 0 20.95 0" fill="#f30" fill-rule="evenodd" id="m"/><path d="M38.5 5.65q-3.5 4.65-15.8 5.4-12.35.75-17.35-2.65Q.35 5 0 2.1l2.95.9 2.95.35 13.8.5 15.65-1.5 2.7-.75L41.4 0q.6.95-2.9 5.65" fill="#530200" fill-rule="evenodd" id="n"/><path d="M20.95 0q20.95 0 21.2 3.8.2 2.8-5.05 6.9-6.65 5.25-16.25 5.25-9.55 0-15.9-4.75Q.15 7.55 0 4.8q-.1-1.7 5.9-3.2Q12.35 0 20.95 0Z" fill="none" stroke="#000" stroke-linecap="round" stroke-linejoin="round" transform="translate(.5 .5)" id="o"/><path d="M0 1.6q1.2 1.25 9.2 1.75 12.95.8 17.15.4Q41.45 2.25 41.6 0" fill="none" stroke="#530200" stroke-linecap="round" stroke-linejoin="round" transform="translate(.5 .5)" id="p"/><path d="M27.35 7.4q2.15 4.15 3.55 8.75 1.45 4.7 1.15 9.5-.35 4.95-4.2 8.1-3.8 3.2-8.75 4.05l-2.6.2q-3.6 0-7.05-1.15-4.65-1.6-7.1-5.5Q-.2 27.4.05 23q.2-4.4 2-9.3Q3.85 8.75 7 5.05 10.1 1.3 14.7.1l1.8-.1q1.9.05 3.7.8 4.75 2.05 7.15 6.6" fill="#fff" fill-rule="evenodd" transform="translate(-.05)" id="q"/><path d="M31.9 20.6q-.3-2.25-1-4.45-1.4-4.6-3.55-8.75-2.4-4.55-7.15-6.6-2.65-1.1-5.5-.7Q10.1 1.3 7 5.05q-3.15 3.7-4.95 8.65Q.7 17.3.25 20.6" fill="none" stroke="#000" stroke-linecap="round" stroke-linejoin="round" transform="translate(.25 .5)" id="r"/><path d="M26.1 7.5q7.45-1.85 7.35-7.1 3.1 11.3-1.15 16.55-3.95 4.9-14.2 4.9-6.2 0-11.05-2.25Q2.3 17.45.8 14.1-1.35 9.15 2.35 0 2 1.55 3.4 4.3 4.75 7 9.05 7.8q4.25.75 7 3.55l2.4 2.75 2.4-3.85q1.3-1.15 5.4-2.75h-.15" fill="#f30" fill-rule="evenodd" id="s"/><path d="M2 0Q-.55 5.35.15 10.75q1.4 10.7 17.5 10.7 14.45 0 16.45-10.5.95-5.25-.95-10.5" fill="none" stroke="#000" stroke-linecap="round" stroke-linejoin="round" transform="translate(.5 .5)" id="v"/><path d="M0 1.25.05.1 2.8 0l.15 1.25" fill="none" stroke="#530200" stroke-linecap="round" stroke-linejoin="round" transform="translate(.5 .5)" id="w"/><path d="M2.25 0v2.6L0 2.5V0h2.25" fill="#f30" fill-rule="evenodd" id="x"/><g id="t" fill="#a62100" fill-rule="evenodd"><path d="M0 0q7.5 4.5 17.4 4.5 9.85 0 15.55-4.3-.6 1.7-1.45 2.65-3.95 4.9-14.2 4.9-6.2 0-11.05-2.25Q1.5 3.35 0 0"/><path d="M25.5 4.1Q19.9 6 16 6q-3.85 0-7.35-2.25l.25.15q2 .6 4-.05l2.3-1.25q1.15-.85 1.95-.85.75 0 2.1.9 1.45 1 2.5 1.2l3.75.25"/></g><g id="u" fill="#530200" fill-rule="evenodd"><path d="M13.55 9.7q2.15 1.7 2.75 1.7h.15v9.95l-1.55-.1q.1-3.8-.4-5.6-.35-1.5-2.4-3.2Q9.8 10.6 7.05 10q-4.4-.9-6.1-3.9Q0 4.25 0 3.1L.85 0q1.5 6.1 6.9 7.15 3.45.7 5.8 2.55"/><path d="m31.95 0 .9 3.1q0 1.2-.95 3-1.65 3-6.1 3.95-2.75.55-5.05 2.45-2.05 1.65-2.45 3.15-.45 1.8-.35 5.65l-1.55.05V11.4l.15.05q.6-.05 2.7-1.75 2.35-1.85 5.8-2.5 5.45-1.05 6.9-7.2"/></g></defs></svg>

<?xml version="1.0" encoding="UTF-8" standalone="no"?>
<svg
   height="82"
   width="84.85"
   version="1.1"
   id="svg77783"
   sodipodi:docname="582.svg"
   inkscape:version="1.1.2 (0a00cf5339, 2022-02-04, custom)"
   xmlns:inkscape="http://www.inkscape.org/namespaces/inkscape"
   xmlns:sodipodi="http://sodipodi.sourceforge.net/DTD/sodipodi-0.dtd"
   xmlns:xlink="http://www.w3.org/1999/xlink"
   xmlns="http://www.w3.org/2000/svg"
   xmlns:svg="http://www.w3.org/2000/svg">
  <sodipodi:namedview
     id="namedview77785"
     pagecolor="#505050"
     bordercolor="#eeeeee"
     borderopacity="1"
     inkscape:pageshadow="0"
     inkscape:pageopacity="0"
     inkscape:pagecheckerboard="0"
     showgrid="false"
     inkscape:current-layer="g77738" />
  <g
     transform="translate(37.4,42.25)"
     id="g77738">
    <use
       height="15.95"
       transform="translate(-16.8,-2.95)"
       width="42.150002"
       xlink:href="#a"
       id="use77712"
       x="0"
       y="0" />
    <use
       height="11.2"
       transform="translate(-16.3,0.25)"
       width="41.5"
       xlink:href="#b"
       id="use77714"
       x="0"
       y="0" />
    <use
       height="16.950001"
       transform="translate(-17.3,-3.45)"
       width="43.150002"
       xlink:href="#c"
       id="use77716"
       x="0"
       y="0" />
    <use
       height="4.9000001"
       transform="translate(-17.3,-0.25)"
       width="42.599998"
       xlink:href="#d"
       id="use77718"
       x="0"
       y="0" />
    <use
       height="38"
       transform="translate(-11.95,-17.45)"
       width="32.049999"
       xlink:href="#e"
       id="use77720"
       x="0"
       y="0" />
    <use
       height="21.6"
       transform="translate(-12.25,-17.95)"
       width="32.650002"
       xlink:href="#f"
       id="use77722"
       x="0"
       y="0" />
    <use
       height="21.85"
       transform="translate(-13.75,0.55)"
       width="34.75"
       xlink:href="#g"
       id="use77724"
       x="0"
       y="0" />
    <use
       height="7.75"
       transform="translate(-12.95,14.65)"
       width="32.950001"
       xlink:href="#h"
       id="use77726"
       x="0"
       y="0"
       style="display:inline" />
    <use
       height="21.35"
       transform="translate(-12.3,0.55)"
       width="32.849998"
       xlink:href="#i"
       id="use77728"
       x="0"
       y="0"
       style="display:inline" />
    <use
       height="22.450001"
       transform="translate(-13.8,0.45)"
       width="35.400002"
       xlink:href="#j"
       id="use77730"
       x="0"
       y="0"
       style="display:inline" />
    <g
       id="use59417"
       transform="translate(9.35,12.45)"
       fill="#530200">
      <path
         fill="#000000"
         d="M 5.75,2.85 V 2.6 Q 5.75,2.25 5.55,1.45 5.35,0.9 4.6,0.4 3.9,0 2.85,0 2.1,0 1.45,0.25 0.8,0.6 0.5,1 0.15,1.45 0.05,2 L 0,3.5 q 0.05,1.1 0.25,1.85 0.25,0.7 0.9,1.05 0.7,0.4 1.75,0.4 1,0 1.75,-0.45 Q 5.35,5.8 5.55,5.25 5.75,4.7 5.75,4 V 3.95 H 3.3 L 3.25,5 Q 3.1,5.2 2.9,5.2 2.55,5.2 2.5,5 V 1.8 Q 2.55,1.6 2.9,1.6 3.2,1.6 3.25,1.75 L 3.3,2.2 v 0.65 h 2.45"
         id="path78204"
         style="fill:#530200;fill-opacity:1" />
    </g>
    <use
       height="2.25"
       transform="translate(2.25,10.3)"
       width="3.95"
       xlink:href="#l"
       id="use77734"
       x="0"
       y="0" />
    <use
       height="2.5999999"
       transform="translate(3.05,11.15)"
       width="2.25"
       xlink:href="#m"
       id="use77736"
       x="0"
       y="0" />
  </g>
  <defs
     id="defs77781">
    <use
       height="15.95"
       width="42.15"
       xlink:href="#n"
       id="a" />
    <use
       height="11.2"
       width="41.5"
       xlink:href="#o"
       id="b" />
    <use
       height="16.95"
       width="43.15"
       xlink:href="#p"
       id="c" />
    <use
       height="4.9"
       width="42.6"
       xlink:href="#q"
       id="d" />
    <use
       height="38"
       width="32.05"
       xlink:href="#r"
       id="e" />
    <use
       height="21.6"
       width="32.65"
       xlink:href="#s"
       id="f" />
    <use
       height="21.85"
       width="34.75"
       xlink:href="#t"
       id="g" />
    <use
       height="7.75"
       width="32.95"
       xlink:href="#u"
       id="h" />
    <use
       height="21.35"
       width="32.85"
       xlink:href="#v"
       id="i" />
    <use
       height="22.45"
       width="35.4"
       xlink:href="#w"
       id="j" />
    <use
       fill="#420200"
       height="6.3"
       transform="translate(.3 5.8) scale(.0049)"
       width="6.1"
       xlink:href="#x"
       id="B" />
    <use
       fill="#420200"
       height="9.65"
       transform="translate(.4 8.55) scale(.0078)"
       width="11"
       xlink:href="#y"
       id="C" />
    <use
       height="2.25"
       width="3.95"
       xlink:href="#z"
       id="l" />
    <use
       height="2.6"
       width="2.25"
       xlink:href="#A"
       id="m" />
    <path
       d="M20.95 0q20.95 0 21.2 3.8.2 2.8-5.05 6.9-6.65 5.25-16.25 5.25-9.55 0-15.9-4.75Q.15 7.55 0 4.8q-.1-1.7 5.9-3.2Q12.35 0 20.95 0"
       fill="#f30"
       fill-rule="evenodd"
       id="n" />
    <path
       d="M38.5 5.65q-3.5 4.65-15.8 5.4-12.35.75-17.35-2.65Q.35 5 0 2.1l2.95.9 2.95.35 13.8.5 15.65-1.5 2.7-.75L41.4 0q.6.95-2.9 5.65"
       fill="#530200"
       fill-rule="evenodd"
       id="o" />
    <path
       d="M20.95 0q20.95 0 21.2 3.8.2 2.8-5.05 6.9-6.65 5.25-16.25 5.25-9.55 0-15.9-4.75Q.15 7.55 0 4.8q-.1-1.7 5.9-3.2Q12.35 0 20.95 0Z"
       fill="none"
       stroke="#000"
       stroke-linecap="round"
       stroke-linejoin="round"
       transform="translate(.5 .5)"
       id="p" />
    <path
       d="M0 1.6q1.2 1.25 9.2 1.75 12.95.8 17.15.4Q41.45 2.25 41.6 0"
       fill="none"
       stroke="#530200"
       stroke-linecap="round"
       stroke-linejoin="round"
       transform="translate(.5 .5)"
       id="q" />
    <path
       d="M27.35 7.4q2.15 4.15 3.55 8.75 1.45 4.7 1.15 9.5-.35 4.95-4.2 8.1-3.8 3.2-8.75 4.05l-2.6.2q-3.6 0-7.05-1.15-4.65-1.6-7.1-5.5Q-.2 27.4.05 23q.2-4.4 2-9.3Q3.85 8.75 7 5.05 10.1 1.3 14.7.1l1.8-.1q1.9.05 3.7.8 4.75 2.05 7.15 6.6"
       fill="#fff"
       fill-rule="evenodd"
       transform="translate(-.05)"
       id="r" />
    <path
       d="M31.9 20.6q-.3-2.25-1-4.45-1.4-4.6-3.55-8.75-2.4-4.55-7.15-6.6-2.65-1.1-5.5-.7Q10.1 1.3 7 5.05q-3.15 3.7-4.95 8.65Q.7 17.3.25 20.6"
       fill="none"
       stroke="#000"
       stroke-linecap="round"
       stroke-linejoin="round"
       transform="translate(.25 .5)"
       id="s" />
    <path
       d="M26.1 7.5q7.45-1.85 7.35-7.1 3.1 11.3-1.15 16.55-3.95 4.9-14.2 4.9-6.2 0-11.05-2.25Q2.3 17.45.8 14.1-1.35 9.15 2.35 0 2 1.55 3.4 4.3 4.75 7 9.05 7.8q4.25.75 7 3.55l2.4 2.75 2.4-3.85q1.3-1.15 5.4-2.75h-.15"
       fill="#f30"
       fill-rule="evenodd"
       id="t" />
    <path
       d="M2 0Q-.55 5.35.15 10.75q1.4 10.7 17.5 10.7 14.45 0 16.45-10.5.95-5.25-.95-10.5"
       fill="none"
       stroke="#000"
       stroke-linecap="round"
       stroke-linejoin="round"
       transform="translate(.5 .5)"
       id="w" />
    <path
       d="M592.5-678H39l-8 159h19q3.5-46 22-73t44.5-36.5q20-7 67.5-7h81.5v518q0 57-11 73-18 26-61 26h-24V0H457v-18.5h-23.5q-39.5 0-58.5-21-13.5-15.5-13.5-78v-518H457q42 0 68 14 25.5 13.5 41 42.5 9.5 18 15 60h19l-7.5-159"
       fill-rule="evenodd"
       id="x" />
    <path
       d="M.5-705q-10 14.5-12 30-1.5 16-2.5 24.5-1 9-1 15 0 49 24.5 67.5 25 19 82 19l70 2v498.5Q161.5-32 174-19q13 12.5 33 19 20 6 31.5 8 12 2 28 2 87.5 0 111-9.5 23.5-10 35.5-24 12.5-13.5 12.5-28V-549h129q31.5 0 52-22.5T627-635q1-4 1-12.5 0-12-1-17.5-1-5-10.5-38.5-10-34-46.5-34H41.5q-7 0-19 8.5-12 9-22 24"
       fill-rule="evenodd"
       id="y" />
    <path
       d="M0 1.25.05.1 2.8 0l.15 1.25"
       fill="none"
       stroke="#530200"
       stroke-linecap="round"
       stroke-linejoin="round"
       transform="translate(.5 .5)"
       id="z" />
    <path
       d="M2.25 0v2.6L0 2.5V0h2.25"
       fill="#f30"
       fill-rule="evenodd"
       id="A" />
    <g
       id="u"
       fill="#a62100"
       fill-rule="evenodd">
      <path
         d="M0 0q7.5 4.5 17.4 4.5 9.85 0 15.55-4.3-.6 1.7-1.45 2.65-3.95 4.9-14.2 4.9-6.2 0-11.05-2.25Q1.5 3.35 0 0"
         id="path77766" />
      <path
         d="M25.5 4.1Q19.9 6 16 6q-3.85 0-7.35-2.25l.25.15q2 .6 4-.05l2.3-1.25q1.15-.85 1.95-.85.75 0 2.1.9 1.45 1 2.5 1.2l3.75.25"
         id="path77768" />
    </g>
    <g
       id="v"
       fill="#530200"
       fill-rule="evenodd">
      <path
         d="M13.55 9.7q2.15 1.7 2.75 1.7h.15v9.95l-1.55-.1q.1-3.8-.4-5.6-.35-1.5-2.4-3.2Q9.8 10.6 7.05 10q-4.4-.9-6.1-3.9Q0 4.25 0 3.1L.85 0q1.5 6.1 6.9 7.15 3.45.7 5.8 2.55"
         id="path77771" />
      <path
         d="m31.95 0 .9 3.1q0 1.2-.95 3-1.65 3-6.1 3.95-2.75.55-5.05 2.45-2.05 1.65-2.45 3.15-.45 1.8-.35 5.65l-1.55.05V11.4l.15.05q.6-.05 2.7-1.75 2.35-1.85 5.8-2.5 5.45-1.05 6.9-7.2"
         id="path77773" />
    </g>
    <g
       id="k"
       transform="translate(-.95 33.05)">
      <use
         height="6.3"
         transform="translate(2.25 -33.05)"
         width="6.1"
         xlink:href="#B"
         id="use77776" />
      <use
         height="9.65"
         transform="translate(.95 -.9)"
         width="11"
         xlink:href="#C"
         id="use77778" />
    </g>
    <filter
       id="filter321"
       filterUnits="objectBoundingBox"
       width="1"
       height="1"
       x="0"
       y="0">
      <feColorMatrix
         type="matrix"
         in="SourceGraphic"
         values="0 0 0 0 1 0 0 0 0 0.2 0 0 0 0 0 0 0 0 1 0"
         result="colorTrans"
         id="feColorMatrix52126" />
    </filter>
    <filter
       id="filter322"
       filterUnits="objectBoundingBox"
       width="1"
       height="1"
       x="0"
       y="0">
      <feColorMatrix
         type="matrix"
         in="SourceGraphic"
         values="0 0 0 0 0.325 0 0 0 0 0.008 0 0 0 0 0 0 0 0 1 0"
         result="colorTrans"
         id="feColorMatrix52129" />
    </filter>
    <filter
       id="filter323"
       filterUnits="objectBoundingBox"
       width="1.0240385"
       height="1.2579153"
       x="-0.012019231"
       y="-0.12875536">
      <feColorMatrix
         type="matrix"
         in="SourceGraphic"
         values="0 0 0 0 0.325 0 0 0 0 0.008 0 0 0 0 0 0 0 0 1 0"
         result="colorTrans"
         id="feColorMatrix52132" />
    </filter>
    <filter
       id="filter324"
       filterUnits="objectBoundingBox"
       width="1"
       height="1"
       x="0"
       y="0">
      <feColorMatrix
         type="matrix"
         in="SourceGraphic"
         values="0 0 0 0 1 0 0 0 0 1 0 0 0 0 1 0 0 0 1 0"
         result="colorTrans"
         id="feColorMatrix52135" />
    </filter>
    <filter
       id="filter325"
       filterUnits="objectBoundingBox"
       width="1"
       height="1"
       x="0"
       y="0">
      <feColorMatrix
         type="matrix"
         in="SourceGraphic"
         values="0 0 0 0 1 0 0 0 0 0.2 0 0 0 0 0 0 0 0 1 0"
         result="colorTrans"
         id="feColorMatrix52138" />
    </filter>
    <filter
       id="filter326"
       filterUnits="objectBoundingBox"
       width="1"
       height="1"
       x="0"
       y="0">
      <feColorMatrix
         type="matrix"
         in="SourceGraphic"
         values="0 0 0 0 0.651 0 0 0 0 0.129 0 0 0 0 0 0 0 0 1 0"
         result="colorTrans"
         id="feColorMatrix52141" />
    </filter>
    <filter
       id="filter327"
       filterUnits="objectBoundingBox"
       width="1"
       height="1"
       x="0"
       y="0">
      <feColorMatrix
         type="matrix"
         in="SourceGraphic"
         values="0 0 0 0 0.325 0 0 0 0 0.008 0 0 0 0 0 0 0 0 1 0"
         result="colorTrans"
         id="feColorMatrix52144" />
    </filter>
    <filter
       id="filter328"
       filterUnits="objectBoundingBox"
       width="1"
       height="1"
       x="0"
       y="0">
      <feColorMatrix
         type="matrix"
         in="SourceGraphic"
         values="0 0 0 0 0.259 0 0 0 0 0.008 0 0 0 0 0 0 0 0 1 0"
         result="colorTrans"
         id="feColorMatrix52147" />
    </filter>
    <filter
       id="filter329"
       filterUnits="objectBoundingBox"
       width="1.3389831"
       height="1.7999987"
       x="-0.16949153"
       y="-0.39999869">
      <feColorMatrix
         type="matrix"
         in="SourceGraphic"
         values="0 0 0 0 0.325 0 0 0 0 0.008 0 0 0 0 0 0 0 0 1 0"
         result="colorTrans"
         id="feColorMatrix52150" />
    </filter>
    <filter
       id="filter330"
       filterUnits="objectBoundingBox"
       width="1"
       height="1"
       x="0"
       y="0">
      <feColorMatrix
         type="matrix"
         in="SourceGraphic"
         values="0 0 0 0 1 0 0 0 0 0.2 0 0 0 0 0 0 0 0 1 0"
         result="colorTrans"
         id="feColorMatrix52153" />
    </filter>
  </defs>
</svg>
